X: 104
T: Tao hai shan dan    (?) A cubit of sandalwood
L: 1/8
M: 2/4
K: C
G2c3/ A/ [I:setbarnb 1]| 
c A G E | 
z D E G | 
c3G | 
c A/ G/ E D | 
C4 | 
G2G E | 
D EG2 | 
z G, A, C | 
E3G | 
D D/ C/ A, D | 
G,4 |]

@@@ Tune index: 8772
